rospo-icon-theme-classic-common/64x64/apps/boswars.svg

<svg height="64" width="64" xmlns="http://www.w3.org/2000/svg"><path d="m38.664062 21c .282.78.422469 1.314.480469 2h20.855469v-1h-20.855469c-.02999-.354716-.08583-.671541-.167969-1zm .50586 4.064453c-.022857.313051-.055109.625716-.111328.935547h-24.914063c-.056266-.305342-.091722-.613385-.115234-.921875-.007839.14112-.029297.279593-.029297.421875.0052.502.05313 1.004.144531 1.5h24.914063c.09-.496.136578-.998.142578-1.5-.000875-.163547-.01577-.30174-.03125-.435547z" opacity=".2"/><path d="m26.59966 14c-6.958612 0-12.59966 4.701-12.59966 10.5.0052.502.0536 1.004.144996 1.5h24.911328c.09038-.49652.1379-.9978.14218-1.5-.0034-1.01634-.184-1.52688-.535924-2.5h21.33742v-4h-23.077378c-2.351936-2.815-6.205832-3.9952-10.321722-4z" fill="#afafb1"/><rect fill="#8e8e8e" height="16" rx="2.736" ry="2.666" width="52" x="4" y="26"/><path d="m4 39.332031v1c0 1.478 1.2220812 2.667969 2.7382812 2.667969h46.5234378c1.516 0 2.738281-1.189969 2.738281-2.667969v-1c0 1.478-1.222281 2.667969-2.738281 2.667969h-46.5234378c-1.5162 0-2.7382812-1.189969-2.7382812-2.667969z" opacity=".2"/><rect fill="#4f4f4f" height="12" rx="6.176" ry="6" width="42" x="8" y="38"/><g opacity=".2" stroke-width="2"><circle cx="14" cy="45" r="4"/><circle cx="24" cy="45" r="4"/><circle cx="34" cy="45" r="4"/><circle cx="44" cy="45" r="4"/></g><g fill="#c4c4c4" stroke-width="2"><circle cx="14" cy="44" r="4"/><circle cx="24" cy="44" r="4"/><circle cx="34" cy="44" r="4"/><circle cx="44" cy="44" r="4"/></g><path d="m8.0273438 44.533203c-.015906.153483-.0273438.308073-.0273438.466797 0 3.324 2.753981 6 6.175781 6h29.648438c3.422 0 6.175781-2.676 6.175781-6 0-.158724-.011294-.313314-.027344-.466797-.276407 3.071918-2.9118 5.466797-6.148437 5.466797h-29.648438c-3.236448 0-5.872031-2.394879-6.1484372-5.466797z" opacity=".2"/><g fill="#fff"><path d="m14.175781 38c-3.4218 0-6.175781 2.669049-6.175781 5.984415 0 .158312.011438.312501.027344.465585.276406-3.063939 2.911989-5.452597 6.148437-5.452597h29.648438c3.236637 0 5.87203 2.388658 6.148437 5.452597.01605-.153084.027344-.307273.027344-.465585 0-3.315366-2.753781-5.984415-6.175781-5.984415z" opacity=".1"/><path d="m6.7382812 26c-1.5161999 0-2.7382812 1.189969-2.7382812 2.667969v1c0-1.478 1.2220813-2.667969 2.7382812-2.667969h46.5234378c1.516 0 2.738281 1.189969 2.738281 2.667969v-1c0-1.478-1.222281-2.667969-2.738281-2.667969z" opacity=".1"/><path d="m26.601562 14c-6.959199 0-12.601562 4.701-12.601562 10.5.001354.127294.023014.254012.037109.380859.386481-5.509342 5.855942-9.880859 12.564453-9.880859 4.116.0048 7.968313 1.185 10.320313 4h23.078125v-1h-23.078125c-2.352-2.815-6.204313-3.9952-10.320313-4zm12.0625 10c .136248.378055.229648.695302.306641 1h .173828c.000985.011815.002687.023661.003907.035156.019249-.17825.048781-.356156.050781-.535156-.002-.2-.040688-.332-.054688-.5z" opacity=".1"/></g></svg>

<svg xmlns="http://www.w3.org/2000/svg" width="64" height="64" version="1">
 <path style="opacity:0.2" d="m 38.664062,21 c 0.282,0.78 0.422469,1.314 0.480469,2 L 60,23 60,22 39.144531,22 c -0.02999,-0.354716 -0.08583,-0.671541 -0.167969,-1 l -0.3125,0 z m 0.50586,4.064453 C 39.147065,25.377504 39.114813,25.690169 39.058594,26 L 14.144531,26 C 14.088265,25.694658 14.052809,25.386615 14.029297,25.078125 14.021458,25.219245 14,25.357718 14,25.5 c 0.0052,0.502 0.05313,1.004 0.144531,1.5 l 24.914063,0 c 0.09,-0.496 0.136578,-0.998 0.142578,-1.5 -8.75e-4,-0.163547 -0.01577,-0.30174 -0.03125,-0.435547 z"/>
 <path style="fill:#afafb1" d="M 26.59966,14 C 19.641048,14 14,18.701 14,24.5 c 0.0052,0.502 0.0536,1.004 0.144996,1.5 l 24.911328,0 c 0.09038,-0.49652 0.1379,-0.9978 0.14218,-1.5 -0.0034,-1.01634 -0.184,-1.52688 -0.535924,-2.5 L 60,22 60,18 36.922622,18 C 34.570686,15.185 30.71679,14.0048 26.6009,14 Z"/>
 <rect style="fill:#8e8e8e" width="52" height="16" x="4" y="26" rx="2.736" ry="2.666"/>
 <path style="opacity:0.2" d="m 4,39.332031 0,1 C 4,41.810031 5.2220812,43 6.7382812,43 L 53.261719,43 C 54.777719,43 56,41.810031 56,40.332031 l 0,-1 C 56,40.810031 54.777719,42 53.261719,42 L 6.7382812,42 C 5.2220812,42 4,40.810031 4,39.332031 Z"/>
 <rect style="fill:#4f4f4f" width="42" height="12" x="8" y="38" rx="6.176" ry="6"/>
 <g style="opacity:0.2" transform="matrix(2,0,0,2,0,1)">
  <circle cx="7" cy="22" r="2"/>
  <circle cx="12" cy="22" r="2"/>
  <circle cx="17" cy="22" r="2"/>
  <circle cx="22" cy="22" r="2"/>
 </g>
 <g style="fill:#c4c4c4" transform="scale(2,2)">
  <circle cx="7" cy="22" r="2"/>
  <circle cx="12" cy="22" r="2"/>
  <circle cx="17" cy="22" r="2"/>
  <circle cx="22" cy="22" r="2"/>
 </g>
 <path style="opacity:0.2" d="M 8.0273438,44.533203 C 8.0114378,44.686686 8,44.841276 8,45 c 0,3.324 2.753981,6 6.175781,6 l 29.648438,0 C 47.246219,51 50,48.324 50,45 50,44.841276 49.988706,44.686686 49.972656,44.533203 49.696249,47.605121 47.060856,50 43.824219,50 L 14.175781,50 C 10.939333,50 8.30375,47.605121 8.0273438,44.533203 Z"/>
 <path style="opacity:0.1;fill:#ffffff" d="M 14.175781,38 C 10.753981,38 8,40.669049 8,43.984415 8,44.142727 8.011438,44.296916 8.027344,44.45 8.30375,41.386061 10.939333,38.997403 14.175781,38.997403 l 29.648438,0 c 3.236637,0 5.87203,2.388658 6.148437,5.452597 C 49.988706,44.296916 50,44.142727 50,43.984415 50,40.669049 47.246219,38 43.824219,38 l -29.648438,0 z"/>
 <path style="opacity:0.1;fill:#ffffff" d="M 6.7382812 26 C 5.2220813 26 4 27.189969 4 28.667969 L 4 29.667969 C 4 28.189969 5.2220813 27 6.7382812 27 L 53.261719 27 C 54.777719 27 56 28.189969 56 29.667969 L 56 28.667969 C 56 27.189969 54.777719 26 53.261719 26 L 6.7382812 26 z"/>
 <path style="opacity:0.1;fill:#ffffff" d="M 26.601562 14 C 19.642363 14 14 18.701 14 24.5 C 14.001354 24.627294 14.023014 24.754012 14.037109 24.880859 C 14.42359 19.371517 19.893051 15 26.601562 15 C 30.717562 15.0048 34.569875 16.185 36.921875 19 L 60 19 L 60 18 L 36.921875 18 C 34.569875 15.185 30.717562 14.0048 26.601562 14 z M 38.664062 24 C 38.80031 24.378055 38.89371 24.695302 38.970703 25 L 39.144531 25 C 39.145516 25.011815 39.147218 25.023661 39.148438 25.035156 C 39.167687 24.856906 39.197219 24.679 39.199219 24.5 C 39.197219 24.3 39.158531 24.168 39.144531 24 L 38.664062 24 z"/>
</svg>
